!! Dmitri Kabalevsky, From Five Sets of Variations, Opus 51 (for piano)
!! "Five Happy Variations on a Russian Folksong"
!! Variation 1.
!! Allegro
!! Tempo: quarter-note equals 144-160 beats per minute.
**kern	**kern
*M2/4	*M2/4
*F:	*F:
*M2/4	*M2/4
=1	=1
4f'	4a'
4r	4cc'
=2	=2
8c'	{8g
8r	8b-}
8C'	8a'
8r	8g'
=3	=3
8F'	8f'
8r	8f'
8FF'	8f'
8r	8r
=4	=4
4f'	4a'
4r	4cc'
=5	=5
8c'	{8g
8r	8b-}
8C'	8a'
8r	8g'
=6	=6
8F'	8f'
8r	8f'
8FF'	8f'
8r	8r
=7	=7
4B-'	4d'
4r	4g'
=8	=8
8A'	8c'
8r	8c'
8C'	8a'
8r	8g'
=9	=9
8F'	8f'
8r	8f'
8FF'	8f'
8r	8r
=10	=10
8B-'	8d'
8r	8d'
8BB-'	8g'
8r	8g'
=11	=11
8A'	8c'
8r	8c'
8C'	8a'
8r	8g'
=12	=12
8F'	8f'
8r	8f'
8FF'	8f'
8r	8r
==	==
*-	*-
